X: 29
T: Louisiana Swing
I: Louisiana Swing	S-L	G	square
C: S-L
M: C|
Z: Transcribed to abc by Mary Lou Knack
R: square
K: G
D2E2F2| "G"G4 B4| G2G2 D4| G2G2 B2B2| G2G2 D4| G2G2 E2D2| G2G2 E2D2| "D"D8-| D6 D2|
"D7"F2F2 A2A2| F2F2 D3D| F2F2 A2A2| F2F2 D3D| d2d2 d2d2| d2c2 B2A2| "G"G8-| G2 |]
% %text 9/1/98

#include "LeftHeader.h"
% %text intentional blank so that each new letter is on the front of a page
#include "RightHeader.h"
$SmallLMargin
$SmallRMargin
% %scale .9
